X:1
T:Ce qui est plus
T:Pierre Sandrin
T:Source : Livre XII de 30 chansons nouvelles à 4 parties---Paris---P.Attaingnant---1543. Editor : André Vierendeels (07/06/18) Notes : Original clefs : C1, C3, C4, F4 Original note values have been halved Editorial accidentals above the staff
T:Ce qui est plus
T:©
T:©
T:©
T:©
T:©
C:Pierre Sandrin
Z:©
%%score [ 1 [ 2 3 ] 4 ]
L:1/8
Q:1/4=120
M:2/2
K:F
V:1 treble nm="Soprano" snm="S"
V:2 treble-8 nm="Tenor 1" snm="T 1"
V:3 treble-8 nm="Tenor 2" snm="T 2"
V:4 bass nm="Bass" snm="B"
V:1
 G4 A2 B2- |: BA A4 G2 | A4 z2 A2 | A2 A2 d2 c2 | BAGF G4 | F4 z2 A2 | A2 G2 F2 F2 | GFGA BABc | %8
w: Ce qui est||plus en|ce mon- de'a- my-|a- * * * *|ble, en-|tre mor- telz, c'est|l'hon- * * * * * * *|
w: |(tens)- * * a|mour qui|par vray- e'al- li-|an- * * * *|ce, rend|les a- mantz l'ung|à _ _ _ _ _ _ _|
 d3 c B2 A2- |"^#" A2 G4 F2 |1 G4 A2 B2- :|2 G2 B2 A2 F2 || A2 A2 G2 E2 | G2 G2 F4 | F4 z2 F2 | %15
w: nes- * te'ac- coin-|* tan- *|ce, 'ien- tens-|ble, qui la peult|ren- dre'im- mor- tel-|l'et du- ra-|ble, cest|
w: l'aul- * tre'ag- gre-|* a- *||||||
 BABc dcBA | GF B4 A2 | B2 d2 d2 d2 | cBAG A2 B2- | B2 AG F4 |: z4 G4 | A2 B3 A A2- | A2 G2 A4 | %23
w: la _ _ _ _ _ _ _|_ _ _ ver-|tu par la- quel-|l'est _ _ _ u- ni-|* * * e,|rai-|son en- * *|* * tre'eulx|
w: ||||||||
 z2 A2 A2 A2 | d2 c2 BAGF | G4 F4 | z2 A2 A2 G2 | F2 F2 GFGA | BABc d3 c | B2 A3 G G2- | %30
w: par volun- té|sem- bla- * * * *|* ble,|donc vray a-|mour de vi- * * *|* * * * ce _|_ nest a- my-|
w: |||||||
 G2 F2 !fermata!G4 :| %31
w: * * e.|
w: |
V:2
 d4 f4 |: f4 dcde | f6 f2 | f2 f2 f2 e2 | d4 d4 | z2 d2 f4- | f2 e2 dcd/c/B/A/ | G2 g2 g2 g2 | %8
w: Ce qui|est plus _ _ _|_ en|ce mon- de'a- my-|a- ble,|en- tre|_ mor- telz, _ _ _ _ _|_ cest l'hon- nes-|
w: |a- mour _ _ _|_ qui|par vray- e'al- li-|an- ce,|rend les|_ a- mantz _ _ _ _ _|_ l'ung à l'aul-|
 f2 d2 f4- | fedc d4 |1 d4 f4 :|2 d4 z2 f2 || f2 c2 _e2 e2 | _e2 B2 d2 d2 |"^b" c4 dcde | f8 | %16
w: te'ac- coin- tan|_ _ _ _ ce,|in- tens|ble, qui|la peult ren- dre'im-|mor- tel- l'et du-|ra- * * * *|ble,|
w: tre'ag- gre- a-||||||||
 z2 f2 f2 f2 | d4 f4 | f2 f2 f2 d2- | d2 c2 d4 |: z4 d4 | f4 f4 | dcde f4- | f2 f2 f2 f2 | %24
w: cest la ver-|tu par|la- quel- l'est u-|* ni- e,|rai-|son en-|tre'eulx _ _ _ _|_ par vo- lun-|
w: ||||||||
 f2 e2 d4 | d4 z2 d2 | f6 e2 | dc d/c/B/A/ G2 g2 | g2 g2 f2 d2 | f4- fedc | d4 !fermata!d4 :| %31
w: té sem- bla-|ble, donc|vray a-|mour _ _ _ _ _ _ de|vi- ce nest a-|my- * * * *|* e.|
w: |||||||
V:3
 B4 c2 d2- |: dcBA B4 | A4 z2 c2 | c2 c2 BAGF | G2 G2 B4 | A4 d4 | c3 B A4 | z2 G2 GFGA | %8
w: Ce qui est||plus en|ce mon- de'a- * * *|* my- a-|ble, en-|tre mor- telz,|c'est l'hon- * * *|
w: |a- * * * *|mour qui|par vray- e'al- * * *|li- an- *|ce, rend|les a- mantz|l'ung à l'aul- * *|
 BABc d2 d2 | cBAG A4 |1 B4 c2 d2 :|2 G2 d2 c2 A2 || c2 c2 B2 G2 | B2 B3 A/G/ A2 | B4 z2 F2 | B8 | %16
w: nes- * * * te'ac- coin-|tan- * * * ce,|i'en- * tens|ble, qui la peult|ren- dre'im- mor- tel-|l'et du- * * ra-|ble, cest|la|
w: * * * * tre'ag- gre-|a- * * * *|||||||
 c4 c4 | B2 B2 B2 B2 | AGAB c2 BA | G4 A4 |: z4 B4 | c2 d3 c cB/A/ | B4 A4 | z2 c2 c2 c2 | %24
w: ver- tu|par la- quel- l'est|u- * * * * * *|ni- e,|rai-|son en- * * * *|* tre'eulx,|par volun- té|
w: ||||||||
 BAGF G2 G2 | B4 A4 | d4 c3 B | A4 z2 G2 | GFGA BABc | d2 d2 c2 B2 | A4 !fermata!G4 :| %31
w: sem- * * * * bla-|* ble,|donc vra- a-|mour de|vi- * * * * * * *|* ce nest a-|my- e.|
w: |||||||
V:4
 G,4 F,E,D,C, |: B,,2 F,,2 G,,4 | D,C,D,E, F,2 F,,2 | F,,2 F,,2 B,,2 C,2 | G,,4- G,,A,,B,,C, | %5
w: Ce qui _ _ _|_ _ est|plus _ _ _ _ en|ce mon- de'a- my-|a- * * * *|
w: |a _ _|mour _ _ _ _ qui|par vray- e'al- li-|an- * * * *|
 D,4 z2 D,2 | F,2 C,2 D,4 | _E,4 E,2 E,2 | B,,2 B,,A,, B,,C,D,E, | F,2 G,2 D,4 |1 G,4 F,E,D,C, :|2 %11
w: ble, en-|tre mor- telz,|cest l'hon- nes-|t'ac- coin- * tan- * * *|* * ce,|in- tens _ _ _|
w: ce, rend|les a- mantz|l'ung à l'aul-|tre'ag- gre- * * * * *|a- * *||
 G,,2 G,2 F,2 D,2 || F,2 F,2 _E,2 C,2 | _E,2 E,2 B,,C,D,E, | F,4 B,,4- | B,,4 z2 B,,2 | %16
w: ble, qui la peult|ren- dre'im- mor- tel-|l'est du- ra- * * *|* ble,|_ cest|
w: |||||
"^b" E,2 B,,2 F,4 | z2 B,,2 B,,2 B,,2 | F,6 B,,2 |"^b" E,4 D,4 |: z4 G,4 | F,E,D,C, B,,2 F,,2 | %22
w: la ver- tu|par la- quel-|l'est u-|ni- e,|rai-|son _ _ _ _ en-|
w: ||||||
 G,,4 D,C,D,E, | F,2 F,,2 F,,2 F,,2 | B,,2 C,2 G,,4 | G,,A,,B,,C, D,4 | z2 D,2 F,2 C,2 | D,4 _E,4 | %28
w: tre'eulx _ _ _ _|_ par vo- lun-|té sem- bla-|ble, _ _ _ _|donc vray a-|mour de|
w: ||||||
 _E,2 E,2 B,,2 B,,A,, | B,,C,D,E, F,2 G,2 | D,4 !fermata!G,,4 :| %31
w: vi- ce nest a- *|* * * * my- *|* e.|
w: |||

